X:6127
T:Geese in the Bog
Z: id:dc-jig-164
M:6/8
L:1/8
K:A Dorian
B|cEE GEE|cEE GAB|cEE GED|EAA A2B|!
cEE GEE|cEE GAB|cBA GED|EAA A2:|!
B|cde ged|eaa ged|cde ged|eaa a2B|!
cde ged|eaa ged|cBA BAG|EAA A2:|!
